public/images/delete.svg

<?xml version="1.0" encoding="iso-8859-1"?>
<!-- Generator: Adobe Illustrator 16.0.0, SVG Export Plug-In . SVG Version: 6.00 Build 0)  -->
<!DOCTYPE svg PUBLIC "-//W3C//DTD SVG 1.1//EN" "http://www.w3.org/Graphics/SVG/1.1/DTD/svg11.dtd">
<svg version="1.1" id="Capa_1" xmlns="http://www.w3.org/2000/svg" xmlns:xlink="http://www.w3.org/1999/xlink" x="0px" y="0px"
	 width="348.333px" height="348.334px" viewBox="0 0 348.333 348.334" style="enable-background:new 0 0 348.333 348.334;"
	 xml:space="preserve">
<g>
	<path d="M336.559,68.611L231.016,174.165l105.543,105.549c15.699,15.705,15.699,41.145,0,56.85
		c-7.844,7.844-18.128,11.769-28.407,11.769c-10.296,0-20.581-3.919-28.419-11.769L174.167,231.003L68.609,336.563
		c-7.843,7.844-18.128,11.769-28.416,11.769c-10.285,0-20.563-3.919-28.413-11.769c-15.699-15.698-15.699-41.139,0-56.85
		l105.54-105.549L11.774,68.611c-15.699-15.699-15.699-41.145,0-56.844c15.696-15.687,41.127-15.687,56.829,0l105.563,105.554
		L279.721,11.767c15.705-15.687,41.139-15.687,56.832,0C352.258,27.466,352.258,52.912,336.559,68.611z"/>
</g>
<g>
</g>
<g>
</g>
<g>
</g>
<g>
</g>
<g>
</g>
<g>
</g>
<g>
</g>
<g>
</g>
<g>
</g>
<g>
</g>
<g>
</g>
<g>
</g>
<g>
</g>
<g>
</g>
<g>
</g>
</svg>

<svg width="349" height="349" viewBox="0 0 349 349" fill="none" xmlns="http://www.w3.org/2000/svg">
<path d="M336.559 68.611L231.016 174.165L336.559 279.714C352.258 295.419 352.258 320.859 336.559 336.564C328.715 344.408 318.431 348.333 308.152 348.333C297.856 348.333 287.571 344.414 279.733 336.564L174.167 231.003L68.609 336.563C60.766 344.407 50.481 348.332 40.193 348.332C29.908 348.332 19.63 344.413 11.78 336.563C-3.91899 320.865 -3.91899 295.424 11.78 279.713L117.32 174.164L11.774 68.611C-3.92499 52.912 -3.92499 27.466 11.774 11.767C27.47 -3.92 52.901 -3.92 68.603 11.767L174.166 117.321L279.721 11.767C295.426 -3.92 320.86 -3.92 336.553 11.767C352.258 27.466 352.258 52.912 336.559 68.611Z" fill="#FF0000"/>
</svg>
